X: 108
T: Nixon's Farewell
C: From Portland Collection
M: C|
L: 1/8
K: D
"D" F(A A2) A3 A | "G" BABc d2 e2 | "D" fdfd g2 f2 | "A" e6 (3ABc  |
"D" d2 A2 F2 A2 | "G" BABc d2 g2 | "D" fedf "A" e2 c2 |1 "D" d4 d4 :|2 "D" d6 |
|: e2 | "D" fdfd "G" gdgd | "D" fgfe d2 e2 | fdfd "G" gdfd | "A" e6 e2 |
"D" fdfd "G" gdgd | "D" fgfe d2 a2 | fedf "A" e2 c2 |1 "D" d6 :|2 "D" d4 d4 |]

